packages/icons/svg/24/Gift.svg

<svg width="24" height="24" viewBox="0 0 24 24" fill="none" xmlns="http://www.w3.org/2000/svg">
<path fill-rule="evenodd" clip-rule="evenodd" d="M11 11H4V9C4 8.11018 4.58109 7.35609 5.3845 7.0965C5.13871 6.61782 5 6.07511 5 5.5C5 3.567 6.567 2 8.5 2C10.433 2 12 3.567 12 5.5C12 3.567 13.567 2 15.5 2C17.433 2 19 3.567 19 5.5C19 6.07511 18.8613 6.61782 18.6155 7.0965C19.4189 7.35609 20 8.11018 20 9V11H13V7H11V11ZM13 20V13H20V18C20 19.1046 19.1046 20 18 20H13ZM11 20H6C4.89543 20 4 19.1046 4 18V13H11V20ZM8.5 7H10V5.5C10 4.67157 9.32843 4 8.5 4C7.67157 4 7 4.67157 7 5.5C7 6.32843 7.67157 7 8.5 7ZM15.5 7C16.3284 7 17 6.32843 17 5.5C17 4.67157 16.3284 4 15.5 4C14.6716 4 14 4.67157 14 5.5C14 5.7463 14 6.2463 14 7C14.694 7 15.194 7 15.5 7Z" fill="#858585"/>
</svg>

<svg width="24" height="24" fill="none" xmlns="http://www.w3.org/2000/svg" viewBox="0 0 24 24"><path fill-rule="evenodd" clip-rule="evenodd" d="M11 11H4V9a2 2 0 011.385-1.904 3.5 3.5 0 1113.231 0A2 2 0 0120 9v2h-7V7h-2v4zm2 9v-7h7v5a2 2 0 01-2 2h-5zm-2 0H6a2 2 0 01-2-2v-5h7v7zM8.5 7H10V5.5A1.5 1.5 0 108.5 7zm7 0A1.5 1.5 0 1014 5.5V7h1.5z" fill="currentColor"></path></svg>
